X: 100235
M: C|
L: 1/8
K: Amix
uB |\
|: g |\
(a/g/f/e/) (c>a) (e>a) (c>a) | Bg-gd BG-Gg |\
[1 (a/g/f/e/) (c>a) (e>a) (c>a) | Ba-ae cA-Ag :|\
[2 (3agf (3gfe (3fed (3edc | BA-Ae (cAA "D.C."|]


